X:208
T:Dame, vos hom vous estrine
C:Adam de la Halle
R:Chanson
O:XIIIe
M:6/8
L:1/8
Q:1/4=80
K:C 
V:1
%%continueall 1
%%maxshrink 0.6
cd/2e/2f ede | ccB A/2G/2A2 | Ac2 dcB | cde/2d/2 dc2 | 
fe2 cd2 | c/2^A/2=A/2G/2F GA2 | FG/2F/2E GA2 | Bc2 ^A=AA/2G/2 | 
GF2 A/2^A/2=AG | AF2 GG2 | c3 de2 | fed cd2 | 
e/2d/2dc fed | ec2 ded | B3 Bc2 | de/2d/2c dd/2c/2B | 
A3 BAG | Ac2 c/2^A/2=AG | A/2^A/2=AG F3 |]




%%header "$P0	 $IR 	$P1"
%%footer $D - Éditions Galouvielle - 2009 - À usage librement privé dans le cadre familial

